Obsidian/actions/24s/view-calendar-month.svg

<svg height="24" viewBox="0 0 24 24" width="24" xmlns="http://www.w3.org/2000/svg"><path d="m3 1c-2.25 0-2 2-2 2v12h14v-12c0-2-2-2-2-2zm0 2h10v10h-10v-2.5zm1 1v2h2v-2zm3 0v2h2v-2zm3 0v2h2v-2zm-6 3v2h2v-2zm3 0v2h2v-2zm3 0v2h2v-2zm-6 3v2h2v-2zm3 0v2h2v-2zm3 0v2h2v-2z" fill="#bebebe" transform="translate(4 4)"/></svg>

<svg xmlns="http://www.w3.org/2000/svg" width="24" height="24" viewBox="0 0 24 24">
 <defs>
  <style id="current-color-scheme" type="text/css">
   .ColorScheme-Text { color:#bebebe; } .ColorScheme-Highlight { color:#4285f4; }
  </style>
 </defs>
 <path style="fill:currentColor" class="ColorScheme-Text" d="M 3 1 C 0.75 1 1 3 1 3 L 1 15 L 15 15 L 15 3 C 15 1 13 1 13 1 L 3 1 z M 3 3 L 13 3 L 13 13 L 3 13 L 3 10.5 L 3 3 z M 4 4 L 4 6 L 6 6 L 6 4 L 4 4 z M 7 4 L 7 6 L 9 6 L 9 4 L 7 4 z M 10 4 L 10 6 L 12 6 L 12 4 L 10 4 z M 4 7 L 4 9 L 6 9 L 6 7 L 4 7 z M 7 7 L 7 9 L 9 9 L 9 7 L 7 7 z M 10 7 L 10 9 L 12 9 L 12 7 L 10 7 z M 4 10 L 4 12 L 6 12 L 6 10 L 4 10 z M 7 10 L 7 12 L 9 12 L 9 10 L 7 10 z M 10 10 L 10 12 L 12 12 L 12 10 L 10 10 z" transform="translate(4 4)"/>
</svg>
